;FLAVOR:Marlin
;TIME:6993
;Filament used: 3.82816m
;Layer height: 0.2
;MINX:39.2
;MINY:56.7
;MINZ:0.2
;MAXX:180.8
;MAXY:163.3
;MAXZ:7
;Generated with Cura_SteamEngine 4.4.1
M140 S50
M105
M190 S50
M104 S200
M105
M109 S200
M82 ;absolute extrusion mode
M201 X500.00 Y500.00 Z100.00 E5000.00 ;Setup machine max acceleration
M203 X500.00 Y500.00 Z10.00 E50.00 ;Setup machine max feedrate
M204 P500.00 R1000.00 T500.00 ;Setup Print/Retract/Travel acceleration
M205 X8.00 Y8.00 Z0.40 E5.00 ;Setup Jerk
M220 S100 ;Reset Feedrate
M221 S100 ;Reset Flowrate

G28 ;Home

G92 E0 ;Reset Extruder
G1 Z2.0 F3000 ;Move Z Axis up
G1 X10.1 Y20 Z0.28 F5000.0 ;Move to start position
G1 X10.1 Y200.0 Z0.28 F1500.0 E15 ;Draw the first line
G1 X10.4 Y200.0 Z0.28 F5000.0 ;Move to side a little
G1 X10.4 Y20 Z0.28 F1500.0 E30 ;Draw the second line
G92 E0 ;Reset Extruder
G1 Z2.0 F3000 ;Move Z Axis up

G92 E0
G92 E0
G1 F2700 E-5
;LAYER_COUNT:35
;LAYER:0
M107
G0 F6000 X84.597 Y64.046 Z0.2
;TYPE:SKIRT
G1 F2700 E0
G1 F1200 X85.08 Y63.422 E0.02625
G1 X85.623 Y62.849 E0.0525
G1 X86.222 Y62.334 E0.07878
G1 X86.87 Y61.883 E0.10503
G1 X87.561 Y61.499 E0.13133
G1 X88.286 Y61.187 E0.15758
G1 X89.039 Y60.95 E0.18383
G1 X89.813 Y60.791 E0.21012
G1 X90.598 Y60.71 E0.23636
G1 X91 Y60.7 E0.24974
G1 X94.19 Y60.7 E0.35584
G1 X94.597 Y60.046 E0.38146
G1 X95.08 Y59.422 E0.4077
G1 X95.623 Y58.849 E0.43396
G1 X96.222 Y58.334 E0.46023
G1 X96.87 Y57.883 E0.48649
G1 X97.561 Y57.499 E0.51279
G1 X98.286 Y57.187 E0.53904
G1 X99.039 Y56.95 E0.56529
G1 X99.813 Y56.791 E0.59157
G1 X100.598 Y56.71 E0.61782
G1 X101 Y56.7 E0.6312
G1 X119 Y56.7 E1.22988
G1 X119.789 Y56.74 E1.25616
G1 X120.569 Y56.859 E1.2824
G1 X121.334 Y57.057 E1.30868
G1 X122.074 Y57.331 E1.33493
G1 X122.783 Y57.679 E1.3612
G1 X123.454 Y58.097 E1.38749
G1 X124.078 Y58.58 E1.41373
G1 X124.651 Y59.123 E1.43999
G1 X125.166 Y59.722 E1.46626
G1 X125.617 Y60.37 E1.49252
G1 X125.8 Y60.7 E1.50507
G1 X129 Y60.7 E1.61151
G1 X129.789 Y60.74 E1.63778
G1 X130.569 Y60.859 E1.66403
G1 X131.334 Y61.057 E1.69031
G1 X132.074 Y61.331 E1.71655
G1 X132.783 Y61.679 E1.74282
G1 X133.454 Y62.097 E1.76912
G1 X134.078 Y62.58 E1.79536
G1 X134.651 Y63.123 E1.82162
G1 X135.166 Y63.722 E1.84789
G1 X135.617 Y64.37 E1.87415
G1 X136.001 Y65.061 E1.90044
G1 X136.313 Y65.786 E1.92669
G1 X136.55 Y66.539 E1.95295
G1 X136.709 Y67.313 E1.97923
G1 X136.79 Y68.098 E2.00548
G1 X136.8 Y68.5 E2.01885
G1 X136.8 Y71.5 E2.11863
G1 X136.76 Y72.289 E2.14491
G1 X136.641 Y73.069 E2.17115
G1 X136.443 Y73.834 E2.19744
G1 X136.169 Y74.574 E2.22368
G1 X135.821 Y75.283 E2.24995
G1 X135.403 Y75.954 E2.27624
G1 X134.92 Y76.578 E2.30249
G1 X134.521 Y76.999 E2.32178
G1 X134.651 Y77.123 E2.32776
G1 X135.166 Y77.722 E2.35403
G1 X135.617 Y78.37 E2.38029
G1 X136.001 Y79.061 E2.40658
G1 X136.313 Y79.786 E2.43283
G1 X136.55 Y80.539 E2.45909
G1 X136.709 Y81.313 E2.48537
G1 X136.79 Y82.098 E2.51162
G1 X136.8 Y82.5 E2.52499
G1 X136.8 Y85.5 E2.62477
G1 X136.76 Y86.289 E2.65105
G1 X136.641 Y87.069 E2.67729
G1 X136.443 Y87.834 E2.70358
G1 X136.169 Y88.574 E2.72982
G1 X135.821 Y89.283 E2.75609
G1 X135.403 Y89.954 E2.78238
G1 X134.92 Y90.578 E2.80863
G1 X134.521 Y90.999 E2.82792
G1 X134.651 Y91.123 E2.8339
G1 X135.166 Y91.722 E2.86017
G1 X135.617 Y92.37 E2.88643
G1 X136.001 Y93.061 E2.91272
G1 X136.313 Y93.786 E2.93897
G1 X136.55 Y94.539 E2.96523
G1 X136.709 Y95.313 E2.99151
G1 X136.79 Y96.098 E3.01776
G1 X136.8 Y96.5 E3.03113
G1 X136.8 Y99.5 E3.13091
G1 X136.76 Y100.289 E3.15719
G1 X136.641 Y101.069 E3.18343
G1 X136.443 Y101.834 E3.20972
G1 X136.169 Y102.574 E3.23596
G1 X136.107 Y102.7 E3.24063
G1 X138.19 Y102.7 E3.30991
G1 X138.597 Y102.046 E3.33553
G1 X139.08 Y101.422 E3.36178
G1 X139.623 Y100.849 E3.38803
G1 X140.222 Y100.334 E3.41431
G1 X140.87 Y99.883 E3.44057
G1 X141.561 Y99.499 E3.46686
G1 X142.286 Y99.187 E3.49311
G1 X143.039 Y98.95 E3.51937
G1 X143.813 Y98.791 E3.54565
G1 X144.598 Y98.71 E3.5719
G1 X145 Y98.7 E3.58527
G1 X163 Y98.7 E4.18395
G1 X163.789 Y98.74 E4.21023
G1 X164.569 Y98.859 E4.23647
G1 X165.334 Y99.057 E4.26276
G1 X166.074 Y99.331 E4.289
G1 X166.783 Y99.679 E4.31527
G1 X167.454 Y100.097 E4.34156
G1 X168.078 Y100.58 E4.36781
G1 X168.651 Y101.123 E4.39406
G1 X169.166 Y101.722 E4.42034
G1 X169.617 Y102.37 E4.4466
G1 X169.8 Y102.7 E4.45915
G1 X173 Y102.7 E4.56558
G1 X173.789 Y102.74 E4.59186
G1 X174.569 Y102.859 E4.6181
G1 X175.334 Y103.057 E4.64438
G1 X176.074 Y103.331 E4.67063
G1 X176.783 Y103.679 E4.6969
G1 X177.454 Y104.097 E4.72319
G1 X178.078 Y104.58 E4.74944
G1 X178.651 Y105.123 E4.77569
G1 X179.166 Y105.722 E4.80197
G1 X179.617 Y106.37 E4.82822
G1 X180.001 Y107.061 E4.85452
G1 X180.313 Y107.786 E4.88077
G1 X180.55 Y108.539 E4.90702
G1 X180.709 Y109.313 E4.93331
G1 X180.79 Y110.098 E4.95955
G1 X180.8 Y110.5 E4.97293
G1 X180.8 Y113.5 E5.07271
G1 X180.76 Y114.289 E5.09898
G1 X180.641 Y115.069 E5.12523
G1 X180.443 Y115.834 E5.15151
G1 X180.169 Y116.574 E5.17776
G1 X179.821 Y117.283 E5.20402
G1 X179.403 Y117.954 E5.23032
G1 X178.92 Y118.578 E5.25656
G1 X178.377 Y119.151 E5.28282
G1 X177.778 Y119.666 E5.30909
G1 X177.13 Y120.117 E5.33535
G1 X176.439 Y120.501 E5.36165
G1 X175.714 Y120.813 E5.3879
G1 X174.961 Y121.05 E5.41415
G1 X174.187 Y121.209 E5.44043
G1 X173.402 Y121.29 E5.46668
G1 X173 Y121.3 E5.48006
G1 X160 Y121.3 E5.91244
G1 X159.211 Y121.26 E5.93871
G1 X158.431 Y121.141 E5.96496
G1 X157.666 Y120.943 E5.99124
G1 X156.926 Y120.669 E6.01749
G1 X156.217 Y120.321 E6.04375
G1 X155.546 Y119.903 E6.07005
G1 X154.922 Y119.42 E6.09629
G1 X154.349 Y118.877 E6.12255
G1 X154.001 Y118.473 E6.14028
G1 X153.92 Y118.578 E6.1447
G1 X153.377 Y119.151 E6.17095
G1 X152.778 Y119.666 E6.19723
G1 X152.13 Y120.117 E6.22348
G1 X151.439 Y120.501 E6.24978
G1 X150.714 Y120.813 E6.27603
G1 X149.961 Y121.05 E6.30228
G1 X149.187 Y121.209 E6.32857
G1 X148.402 Y121.29 E6.35481
G1 X148 Y121.3 E6.36819
G1 X136.104 Y121.3 E6.76385
G1 X136.313 Y121.786 E6.78145
G1 X136.55 Y122.539 E6.8077
G1 X136.709 Y123.313 E6.83398
G1 X136.79 Y124.098 E6.86023
G1 X136.8 Y124.5 E6.87361
G1 X136.8 Y127.5 E6.97339
G1 X136.76 Y128.289 E6.99966
G1 X136.641 Y129.069 E7.02591
G1 X136.443 Y129.834 E7.05219
G1 X136.169 Y130.574 E7.07843
G1 X135.821 Y131.283 E7.1047
G1 X135.403 Y131.954 E7.131
G1 X134.92 Y132.578 E7.15724
G1 X134.521 Y132.999 E7.17653
G1 X134.651 Y133.123 E7.18251
G1 X135.166 Y133.722 E7.20878
G1 X135.617 Y134.37 E7.23504
G1 X136.001 Y135.061 E7.26133
G1 X136.313 Y135.786 E7.28759
G1 X136.55 Y136.539 E7.31384
G1 X136.709 Y137.313 E7.34012
G1 X136.79 Y138.098 E7.36637
G1 X136.8 Y138.5 E7.37975
G1 X136.8 Y141.5 E7.47953
G1 X136.76 Y142.289 E7.5058
G1 X136.641 Y143.069 E7.53205
G1 X136.443 Y143.834 E7.55833
G1 X136.169 Y144.574 E7.58457
G1 X135.821 Y145.283 E7.61084
G1 X135.403 Y145.954 E7.63714
G1 X134.92 Y146.578 E7.66338
G1 X134.521 Y146.999 E7.68267
G1 X134.651 Y147.123 E7.68865
G1 X135.166 Y147.722 E7.71492
G1 X135.617 Y148.37 E7.74118
G1 X136.001 Y149.061 E7.76747
G1 X136.313 Y149.786 E7.79373
G1 X136.55 Y150.539 E7.81998
G1 X136.709 Y151.313 E7.84626
G1 X136.79 Y152.098 E7.87251
G1 X136.8 Y152.5 E7.88589
G1 X136.8 Y155.5 E7.98567
G1 X136.76 Y156.289 E8.01194
G1 X136.641 Y157.069 E8.03819
G1 X136.443 Y157.834 E8.06447
G1 X136.169 Y158.574 E8.09071
G1 X135.821 Y159.283 E8.11698
G1 X135.403 Y159.954 E8.14328
G1 X134.92 Y160.578 E8.16952
G1 X134.377 Y161.151 E8.19578
G1 X133.778 Y161.666 E8.22205
G1 X133.13 Y162.117 E8.24831
G1 X132.439 Y162.501 E8.2746
G1 X131.714 Y162.813 E8.30085
G1 X130.961 Y163.05 E8.32711
G1 X130.187 Y163.209 E8.35339
G1 X129.402 Y163.29 E8.37964
G1 X129 Y163.3 E8.39301
G1 X116 Y163.3 E8.8254
G1 X115.211 Y163.26 E8.85167
G1 X114.431 Y163.141 E8.87791
G1 X113.666 Y162.943 E8.9042
G1 X112.926 Y162.669 E8.93044
G1 X112.217 Y162.321 E8.95671
G1 X111.546 Y161.903 E8.98301
G1 X110.922 Y161.42 E9.00925
G1 X110.349 Y160.877 E9.03551
G1 X110.001 Y160.473 E9.05324
G1 X109.92 Y160.578 E9.05765
G1 X109.377 Y161.151 E9.08391
G1 X108.778 Y161.666 E9.11018
G1 X108.13 Y162.117 E9.13644
G1 X107.439 Y162.501 E9.16273
G1 X106.714 Y162.813 E9.18899
G1 X105.961 Y163.05 E9.21524
G1 X105.187 Y163.209 E9.24152
G1 X104.402 Y163.29 E9.26777
G1 X104 Y163.3 E9.28115
G1 X91 Y163.3 E9.71353
G1 X90.211 Y163.26 E9.7398
G1 X89.431 Y163.141 E9.76605
G1 X88.666 Y162.943 E9.79233
G1 X87.926 Y162.669 E9.81857
G1 X87.217 Y162.321 E9.84484
G1 X86.546 Y161.903 E9.87114
G1 X85.922 Y161.42 E9.89738
G1 X85.349 Y160.877 E9.92364
G1 X84.834 Y160.278 E9.94991
G1 X84.383 Y159.63 E9.97617
G1 X83.999 Y158.939 E10.00246
G1 X83.687 Y158.214 E10.02872
G1 X83.45 Y157.461 E10.05497
G1 X83.291 Y156.687 E10.08125
G1 X83.21 Y155.902 E10.1075
G1 X83.2 Y155.5 E10.12088
G1 X83.2 Y152.5 E10.22066
G1 X83.24 Y151.711 E10.24693
G1 X83.359 Y150.931 E10.27317
G1 X83.557 Y150.166 E10.29946
G1 X83.831 Y149.426 E10.3257
G1 X84.179 Y148.717 E10.35197
G1 X84.597 Y148.046 E10.37827
G1 X85.08 Y147.422 E10.40451
G1 X85.479 Y147.001 E10.4238
G1 X85.349 Y146.877 E10.42978
G1 X84.834 Y146.278 E10.45605
G1 X84.383 Y145.63 E10.48231
G1 X83.999 Y144.939 E10.5086
G1 X83.687 Y144.214 E10.53486
G1 X83.45 Y143.461 E10.56111
G1 X83.291 Y142.687 E10.58739
G1 X83.21 Y141.902 E10.61364
G1 X83.2 Y141.5 E10.62701
G1 X83.2 Y138.5 E10.7268
G1 X83.24 Y137.711 E10.75307
G1 X83.359 Y136.931 E10.77931
G1 X83.557 Y136.166 E10.8056
G1 X83.831 Y135.426 E10.83184
G1 X83.893 Y135.3 E10.83651
G1 X72 Y135.3 E11.23208
G1 X71.211 Y135.26 E11.25835
G1 X70.431 Y135.141 E11.28459
G1 X69.666 Y134.943 E11.31088
G1 X68.926 Y134.669 E11.33712
G1 X68.217 Y134.321 E11.36339
G1 X67.546 Y133.903 E11.38969
G1 X66.922 Y133.42 E11.41593
G1 X66.349 Y132.877 E11.44219
G1 X66.001 Y132.473 E11.45992
G1 X65.92 Y132.578 E11.46433
G1 X65.377 Y133.151 E11.49059
G1 X64.778 Y133.666 E11.51686
G1 X64.13 Y134.117 E11.54312
G1 X63.439 Y134.501 E11.56941
G1 X62.714 Y134.813 E11.59567
G1 X61.961 Y135.05 E11.62192
G1 X61.187 Y135.209 E11.6482
G1 X60.402 Y135.29 E11.67445
G1 X60 Y135.3 E11.68783
G1 X47 Y135.3 E12.12021
G1 X46.211 Y135.26 E12.14648
G1 X45.431 Y135.141 E12.17273
G1 X44.666 Y134.943 E12.19901
G1 X43.926 Y134.669 E12.22525
G1 X43.217 Y134.321 E12.25152
G1 X42.546 Y133.903 E12.27782
G1 X41.922 Y133.42 E12.30406
G1 X41.349 Y132.877 E12.33032
G1 X40.834 Y132.278 E12.35659
G1 X40.383 Y131.63 E12.38285
G1 X39.999 Y130.939 E12.40914
G1 X39.687 Y130.214 E12.4354
G1 X39.45 Y129.461 E12.46165
G1 X39.291 Y128.687 E12.48793
G1 X39.21 Y127.902 E12.51418
G1 X39.2 Y127.5 E12.52756
G1 X39.2 Y124.5 E12.62734
G1 X39.24 Y123.711 E12.65361
G1 X39.359 Y122.931 E12.67985
G1 X39.557 Y122.166 E12.70614
G1 X39.831 Y121.426 E12.73238
G1 X40.179 Y120.717 E12.75865
G1 X40.597 Y120.046 E12.78495
G1 X41.08 Y119.422 E12.81119
G1 X41.479 Y119.001 E12.83048
G1 X41.349 Y118.877 E12.83646
G1 X40.834 Y118.278 E12.86273
G1 X40.383 Y117.63 E12.88899
G1 X39.999 Y116.939 E12.91528
G1 X39.687 Y116.214 E12.94154
G1 X39.45 Y115.461 E12.96779
G1 X39.291 Y114.687 E12.99407
G1 X39.21 Y113.902 E13.02032
G1 X39.2 Y113.5 E13.0337
G1 X39.2 Y110.5 E13.13348
G1 X39.24 Y109.711 E13.15975
G1 X39.359 Y108.931 E13.18599
G1 X39.557 Y108.166 E13.21228
G1 X39.831 Y107.426 E13.23852
G1 X40.179 Y106.717 E13.26479
G1 X40.597 Y106.046 E13.29108
G1 X41.08 Y105.422 E13.31733
G1 X41.623 Y104.849 E13.34359
G1 X42.222 Y104.334 E13.36986
G1 X42.87 Y103.883 E13.39612
G1 X43.561 Y103.499 E13.42241
G1 X44.286 Y103.187 E13.44866
G1 X45.039 Y102.95 E13.47492
G1 X45.813 Y102.791 E13.5012
G1 X46.598 Y102.71 E13.52745
G1 X47 Y102.7 E13.54082
G1 X50.19 Y102.7 E13.64692
G1 X50.597 Y102.046 E13.67254
G1 X51.08 Y101.422 E13.69879
G1 X51.623 Y100.849 E13.72504
G1 X52.222 Y100.334 E13.75132
G1 X52.87 Y99.883 E13.77758
G1 X53.561 Y99.499 E13.80387
G1 X54.286 Y99.187 E13.83012
G1 X55.039 Y98.95 E13.85638
G1 X55.813 Y98.791 E13.88266
G1 X56.598 Y98.71 E13.90891
G1 X57 Y98.7 E13.92228
G1 X75 Y98.7 E14.52096
G1 X75.789 Y98.74 E14.54724
G1 X76.569 Y98.859 E14.57348
G1 X77.334 Y99.057 E14.59977
G1 X78.074 Y99.331 E14.62601
G1 X78.783 Y99.679 E14.65228
G1 X79.454 Y100.097 E14.67857
G1 X80.078 Y100.58 E14.70482
G1 X80.651 Y101.123 E14.73108
G1 X81.166 Y101.722 E14.75735
G1 X81.617 Y102.37 E14.78361
G1 X81.8 Y102.7 E14.79616
G1 X83.896 Y102.7 E14.86587
G1 X83.687 Y102.214 E14.88347
G1 X83.45 Y101.461 E14.90972
G1 X83.291 Y100.687 E14.936
G1 X83.21 Y99.902 E14.96225
G1 X83.2 Y99.5 E14.97563
G1 X83.2 Y96.5 E15.07541
G1 X83.24 Y95.711 E15.10168
G1 X83.359 Y94.931 E15.12793
G1 X83.557 Y94.166 E15.15421
G1 X83.831 Y93.426 E15.18045
G1 X84.179 Y92.717 E15.20672
G1 X84.597 Y92.046 E15.23302
G1 X85.08 Y91.422 E15.25926
G1 X85.479 Y91.001 E15.27855
G1 X85.349 Y90.877 E15.28453
G1 X84.834 Y90.278 E15.3108
G1 X84.383 Y89.63 E15.33706
G1 X83.999 Y88.939 E15.36336
G1 X83.687 Y88.214 E15.38961
G1 X83.45 Y87.461 E15.41586
G1 X83.291 Y86.687 E15.44214
G1 X83.21 Y85.902 E15.46839
G1 X83.2 Y85.5 E15.48177
G1 X83.2 Y82.5 E15.58155
G1 X83.24 Y81.711 E15.60782
G1 X83.359 Y80.931 E15.63407
G1 X83.557 Y80.166 E15.66035
G1 X83.831 Y79.426 E15.68659
G1 X84.179 Y78.717 E15.71286
G1 X84.597 Y78.046 E15.73916
G1 X85.08 Y77.422 E15.7654
G1 X85.479 Y77.001 E15.78469
G1 X85.349 Y76.877 E15.79067
G1 X84.834 Y76.278 E15.81694
G1 X84.383 Y75.63 E15.8432
G1 X83.999 Y74.939 E15.8695
G1 X83.687 Y74.214 E15.89575
G1 X83.45 Y73.461 E15.922
G1 X83.291 Y72.687 E15.94828
G1 X83.21 Y71.902 E15.97453
G1 X83.2 Y71.5 E15.98791
G1 X83.2 Y68.5 E16.08769
G1 X83.24 Y67.711 E16.11396
G1 X83.359 Y66.931 E16.14021
G1 X83.557 Y66.166 E16.16649
G1 X83.831 Y65.426 E16.19273
G1 X84.179 Y64.717 E16.219
G1 X84.597 Y64.046 E16.2453
G0 F6000 X84.994 Y64.177
G1 F1200 X85.475 Y63.577 E16.27087
G1 X86.016 Y63.03 E16.29646
G1 X86.611 Y62.542 E16.32206
G1 X87.253 Y62.119 E16.34763
G1 X87.936 Y61.764 E16.37323
G1 X88.651 Y61.483 E16.39878
G1 X89.393 Y61.277 E16.42439
G1 X90.151 Y61.149 E16.44996
G1 X91 Y61.1 E16.47825
G1 X94.438 Y61.1 E16.5926
G1 X94.578 Y60.824 E16.60289
G1 X94.994 Y60.177 E16.62847
G1 X95.475 Y59.577 E16.65405
G1 X96.016 Y59.03 E16.67964
G1 X96.611 Y58.542 E16.70523
G1 X97.253 Y58.119 E16.7308
G1 X97.936 Y57.764 E16.75641
G1 X98.651 Y57.483 E16.78196
G1 X99.393 Y57.277 E16.80757
G1 X100.151 Y57.149 E16.83314
G1 X101 Y57.1 E16.86142
G1 X119 Y57.1 E17.4601
G1 X119.768 Y57.14 E17.48568
G1 X120.528 Y57.259 E17.51127
G1 X121.271 Y57.457 E17.53684
G1 X121.99 Y57.731 E17.56244
G1 X122.676 Y58.078 E17.588
G1 X123.323 Y58.494 E17.61359
G1 X123.923 Y58.975 E17.63917
G1 X124.47 Y59.516 E17.66475
G1 X124.958 Y60.111 E17.69035
G1 X125.381 Y60.753 E17.71592
G1 X125.561 Y61.1 E17.72892
G1 X129 Y61.1 E17.8433
G1 X129.768 Y61.14 E17.86888
G1 X130.528 Y61.259 E17.89447
G1 X131.271 Y61.457 E17.92004
G1 X131.99 Y61.731 E17.94563
G1 X132.676 Y62.078 E17.9712
G1 X133.323 Y62.494 E17.99679
G1 X133.923 Y62.975 E18.02236
G1 X134.47 Y63.516 E18.04795
G1 X134.958 Y64.111 E18.07355
G1 X135.381 Y64.753 E18.09912
G1 X135.736 Y65.436 E18.12472
G1 X136.017 Y66.151 E18.15027
G1 X136.223 Y66.893 E18.17588
G1 X136.351 Y67.651 E18.20145
G1 X136.4 Y68.5 E18.22974
G1 X136.4 Y71.5 E18.32952
G1 X136.36 Y72.268 E18.3551
G1 X136.241 Y73.028 E18.38068
G1 X136.043 Y73.771 E18.40626
G1 X135.769 Y74.49 E18.43185
G1 X135.422 Y75.176 E18.45742
G1 X135.006 Y75.823 E18.483
G1 X134.525 Y76.423 E18.50858
G1 X133.984 Y76.97 E18.53417
G1 X133.948 Y77 E18.53572
G1 X134.47 Y77.516 E18.56014
G1 X134.958 Y78.111 E18.58573
G1 X135.381 Y78.753 E18.6113
G1 X135.736 Y79.436 E18.6369
G1 X136.017 Y80.151 E18.66246
G1 X136.223 Y80.893 E18.68807
G1 X136.351 Y81.651 E18.71364
G1 X136.4 Y82.5 E18.74192
G1 X136.4 Y85.5 E18.8417
G1 X136.36 Y86.268 E18.86728
G1 X136.241 Y87.028 E18.89287
G1 X136.043 Y87.771 E18.91844
G1 X135.769 Y88.49 E18.94403
G1 X135.422 Y89.176 E18.9696
G1 X135.006 Y89.823 E18.99519
G1 X134.525 Y90.423 E19.02076
G1 X133.984 Y90.97 E19.04635
G1 X133.948 Y91 E19.04791
G1 X134.47 Y91.516 E19.07232
G1 X134.958 Y92.111 E19.09792
G1 X135.381 Y92.753 E19.12349
G1 X135.736 Y93.436 E19.14909
G1 X136.017 Y94.151 E19.17464
G1 X136.223 Y94.893 E19.20025
G1 X136.351 Y95.651 E19.22582
G1 X136.4 Y96.5 E19.25411
G1 X136.4 Y99.5 E19.35389
G1 X136.36 Y100.268 E19.37947
