;FLAVOR:Marlin
;TIME:13633
;Filament used: 7.51378m
;Layer height: 0.2
;MINX:39.2
;MINY:42.7
;MINZ:0.2
;MAXX:180.8
;MAXY:177.3
;MAXZ:7
;Generated with Cura_SteamEngine 4.4.1
M140 S50
M105
M190 S50
M104 S200
M105
M109 S200
M82 ;absolute extrusion mode
M201 X500.00 Y500.00 Z100.00 E5000.00 ;Setup machine max acceleration
M203 X500.00 Y500.00 Z10.00 E50.00 ;Setup machine max feedrate
M204 P500.00 R1000.00 T500.00 ;Setup Print/Retract/Travel acceleration
M205 X8.00 Y8.00 Z0.40 E5.00 ;Setup Jerk
M220 S100 ;Reset Feedrate
M221 S100 ;Reset Flowrate

G28 ;Home

G92 E0 ;Reset Extruder
G1 Z2.0 F3000 ;Move Z Axis up
G1 X10.1 Y20 Z0.28 F5000.0 ;Move to start position
G1 X10.1 Y200.0 Z0.28 F1500.0 E15 ;Draw the first line
G1 X10.4 Y200.0 Z0.28 F5000.0 ;Move to side a little
G1 X10.4 Y20 Z0.28 F1500.0 E30 ;Draw the second line
G92 E0 ;Reset Extruder
G1 Z2.0 F3000 ;Move Z Axis up

G92 E0
G92 E0
G1 F2700 E-5
;LAYER_COUNT:35
;LAYER:0
M107
G0 F6000 X42.87 Y75.883 Z0.2
;TYPE:SKIRT
G1 F2700 E0
G1 F1200 X43.561 Y75.499 E0.02629
G1 X44.286 Y75.187 E0.05254
G1 X45.039 Y74.95 E0.0788
G1 X45.813 Y74.791 E0.10508
G1 X46.598 Y74.71 E0.13133
G1 X47 Y74.7 E0.1447
G1 X50.19 Y74.7 E0.2508
G1 X50.597 Y74.046 E0.27642
G1 X51.08 Y73.422 E0.30267
G1 X51.623 Y72.849 E0.32893
G1 X52.222 Y72.334 E0.3552
G1 X52.87 Y71.883 E0.38146
G1 X53.561 Y71.499 E0.40775
G1 X54.286 Y71.187 E0.434
G1 X55.039 Y70.95 E0.46026
G1 X55.813 Y70.791 E0.48654
G1 X56.598 Y70.71 E0.51279
G1 X57 Y70.7 E0.52616
G1 X75 Y70.7 E1.12485
G1 X75.789 Y70.74 E1.15112
G1 X76.569 Y70.859 E1.17736
G1 X77.334 Y71.057 E1.20365
G1 X78.074 Y71.331 E1.22989
G1 X78.783 Y71.679 E1.25616
G1 X79.454 Y72.097 E1.28245
G1 X80.078 Y72.58 E1.3087
G1 X80.651 Y73.123 E1.33496
G1 X81.166 Y73.722 E1.36123
G1 X81.617 Y74.37 E1.38749
G1 X81.8 Y74.7 E1.40004
G1 X83.896 Y74.7 E1.46975
G1 X83.687 Y74.214 E1.48735
G1 X83.45 Y73.461 E1.5136
G1 X83.291 Y72.687 E1.53989
G1 X83.21 Y71.902 E1.56613
G1 X83.2 Y71.5 E1.57951
G1 X83.2 Y68.5 E1.67929
G1 X83.24 Y67.711 E1.70556
G1 X83.359 Y66.931 E1.73181
G1 X83.557 Y66.166 E1.75809
G1 X83.831 Y65.426 E1.78434
G1 X84.179 Y64.717 E1.8106
G1 X84.597 Y64.046 E1.8369
G1 X85.08 Y63.422 E1.86314
G1 X85.479 Y63.001 E1.88244
G1 X85.349 Y62.877 E1.88841
G1 X84.834 Y62.278 E1.91468
G1 X84.383 Y61.63 E1.94094
G1 X83.999 Y60.939 E1.96724
G1 X83.687 Y60.214 E1.99349
G1 X83.45 Y59.461 E2.01974
G1 X83.291 Y58.687 E2.04603
G1 X83.21 Y57.902 E2.07227
G1 X83.2 Y57.5 E2.08565
G1 X83.2 Y54.5 E2.18543
G1 X83.24 Y53.711 E2.2117
G1 X83.359 Y52.931 E2.23795
G1 X83.557 Y52.166 E2.26423
G1 X83.831 Y51.426 E2.29048
G1 X84.179 Y50.717 E2.31674
G1 X84.597 Y50.046 E2.34304
G1 X85.08 Y49.422 E2.36928
G1 X85.623 Y48.849 E2.39554
G1 X86.222 Y48.334 E2.42181
G1 X86.87 Y47.883 E2.44807
G1 X87.561 Y47.499 E2.47437
G1 X88.286 Y47.187 E2.50062
G1 X89.039 Y46.95 E2.52687
G1 X89.813 Y46.791 E2.55315
G1 X90.598 Y46.71 E2.5794
G1 X91 Y46.7 E2.59278
G1 X94.19 Y46.7 E2.69888
G1 X94.597 Y46.046 E2.7245
G1 X95.08 Y45.422 E2.75074
G1 X95.623 Y44.849 E2.777
G1 X96.222 Y44.334 E2.80327
G1 X96.87 Y43.883 E2.82953
G1 X97.561 Y43.499 E2.85582
G1 X98.286 Y43.187 E2.88208
G1 X99.039 Y42.95 E2.90833
G1 X99.813 Y42.791 E2.93461
G1 X100.598 Y42.71 E2.96086
G1 X101 Y42.7 E2.97423
G1 X119 Y42.7 E3.57292
G1 X119.789 Y42.74 E3.59919
G1 X120.569 Y42.859 E3.62544
G1 X121.334 Y43.057 E3.65172
G1 X122.074 Y43.331 E3.67796
G1 X122.783 Y43.679 E3.70423
G1 X123.454 Y44.097 E3.73053
G1 X124.078 Y44.58 E3.75677
G1 X124.651 Y45.123 E3.78303
G1 X125.166 Y45.722 E3.8093
G1 X125.617 Y46.37 E3.83556
G1 X125.8 Y46.7 E3.84811
G1 X129 Y46.7 E3.95454
G1 X129.789 Y46.74 E3.98082
G1 X130.569 Y46.859 E4.00706
G1 X131.334 Y47.057 E4.03335
G1 X132.074 Y47.331 E4.05959
G1 X132.783 Y47.679 E4.08586
G1 X133.454 Y48.097 E4.11215
G1 X134.078 Y48.58 E4.1384
G1 X134.651 Y49.123 E4.16465
G1 X135.166 Y49.722 E4.19093
G1 X135.617 Y50.37 E4.21719
G1 X136.001 Y51.061 E4.24348
G1 X136.313 Y51.786 E4.26973
G1 X136.55 Y52.539 E4.29599
G1 X136.709 Y53.313 E4.32227
G1 X136.79 Y54.098 E4.34852
G1 X136.8 Y54.5 E4.36189
G1 X136.8 Y57.5 E4.46167
G1 X136.76 Y58.289 E4.48795
G1 X136.641 Y59.069 E4.51419
G1 X136.443 Y59.834 E4.54047
G1 X136.169 Y60.574 E4.56672
G1 X135.821 Y61.283 E4.59299
G1 X135.403 Y61.954 E4.61928
G1 X134.92 Y62.578 E4.64553
G1 X134.521 Y62.999 E4.66482
G1 X134.651 Y63.123 E4.67079
G1 X135.166 Y63.722 E4.69707
G1 X135.617 Y64.37 E4.72333
G1 X136.001 Y65.061 E4.74962
G1 X136.313 Y65.786 E4.77587
G1 X136.55 Y66.539 E4.80213
G1 X136.709 Y67.313 E4.82841
G1 X136.79 Y68.098 E4.85466
G1 X136.8 Y68.5 E4.86803
G1 X136.8 Y71.5 E4.96781
G1 X136.76 Y72.289 E4.99409
G1 X136.641 Y73.069 E5.02033
G1 X136.443 Y73.834 E5.04661
G1 X136.169 Y74.574 E5.07286
G1 X136.107 Y74.7 E5.07753
G1 X138.19 Y74.7 E5.14681
G1 X138.597 Y74.046 E5.17243
G1 X139.08 Y73.422 E5.19868
G1 X139.623 Y72.849 E5.22493
G1 X140.222 Y72.334 E5.25121
G1 X140.87 Y71.883 E5.27747
G1 X141.561 Y71.499 E5.30376
G1 X142.286 Y71.187 E5.33001
G1 X143.039 Y70.95 E5.35627
G1 X143.813 Y70.791 E5.38255
G1 X144.598 Y70.71 E5.40879
G1 X145 Y70.7 E5.42217
G1 X163 Y70.7 E6.02085
G1 X163.789 Y70.74 E6.04713
G1 X164.569 Y70.859 E6.07337
G1 X165.334 Y71.057 E6.09965
G1 X166.074 Y71.331 E6.1259
G1 X166.783 Y71.679 E6.15217
G1 X167.454 Y72.097 E6.17846
G1 X168.078 Y72.58 E6.20471
G1 X168.651 Y73.123 E6.23096
G1 X169.166 Y73.722 E6.25724
G1 X169.617 Y74.37 E6.2835
G1 X169.8 Y74.7 E6.29605
G1 X173 Y74.7 E6.40248
G1 X173.789 Y74.74 E6.42875
G1 X174.569 Y74.859 E6.455
G1 X175.334 Y75.057 E6.48128
G1 X176.074 Y75.331 E6.50753
G1 X176.783 Y75.679 E6.53379
G1 X177.454 Y76.097 E6.56009
G1 X178.078 Y76.58 E6.58633
G1 X178.651 Y77.123 E6.61259
G1 X179.166 Y77.722 E6.63886
G1 X179.617 Y78.37 E6.66512
G1 X180.001 Y79.061 E6.69142
G1 X180.313 Y79.786 E6.71767
G1 X180.55 Y80.539 E6.74392
G1 X180.709 Y81.313 E6.7702
G1 X180.79 Y82.098 E6.79645
G1 X180.8 Y82.5 E6.80983
G1 X180.8 Y85.5 E6.90961
G1 X180.76 Y86.289 E6.93588
G1 X180.641 Y87.069 E6.96213
G1 X180.443 Y87.834 E6.98841
G1 X180.169 Y88.574 E7.01465
G1 X179.821 Y89.283 E7.04092
G1 X179.403 Y89.954 E7.06722
G1 X178.92 Y90.578 E7.09346
G1 X178.521 Y90.999 E7.11275
G1 X178.651 Y91.123 E7.11873
G1 X179.166 Y91.722 E7.145
G1 X179.617 Y92.37 E7.17126
G1 X180.001 Y93.061 E7.19756
G1 X180.313 Y93.786 E7.22381
G1 X180.55 Y94.539 E7.25006
G1 X180.709 Y95.313 E7.27634
G1 X180.79 Y96.098 E7.30259
G1 X180.8 Y96.5 E7.31597
G1 X180.8 Y99.5 E7.41575
G1 X180.76 Y100.289 E7.44202
G1 X180.641 Y101.069 E7.46827
G1 X180.443 Y101.834 E7.49455
G1 X180.169 Y102.574 E7.52079
G1 X179.821 Y103.283 E7.54706
G1 X179.403 Y103.954 E7.57336
G1 X178.92 Y104.578 E7.5996
G1 X178.521 Y104.999 E7.61889
G1 X178.651 Y105.123 E7.62487
G1 X179.166 Y105.722 E7.65114
G1 X179.617 Y106.37 E7.6774
G1 X180.001 Y107.061 E7.70369
G1 X180.313 Y107.786 E7.72995
G1 X180.55 Y108.539 E7.7562
G1 X180.709 Y109.313 E7.78248
G1 X180.79 Y110.098 E7.80873
G1 X180.8 Y110.5 E7.82211
G1 X180.8 Y113.5 E7.92189
G1 X180.76 Y114.289 E7.94816
G1 X180.641 Y115.069 E7.97441
G1 X180.443 Y115.834 E8.00069
G1 X180.169 Y116.574 E8.02693
G1 X179.821 Y117.283 E8.0532
G1 X179.403 Y117.954 E8.0795
G1 X178.92 Y118.578 E8.10574
G1 X178.521 Y118.999 E8.12503
G1 X178.651 Y119.123 E8.13101
G1 X179.166 Y119.722 E8.15728
G1 X179.617 Y120.37 E8.18354
G1 X180.001 Y121.061 E8.20983
G1 X180.313 Y121.786 E8.23609
G1 X180.55 Y122.539 E8.26234
G1 X180.709 Y123.313 E8.28862
G1 X180.79 Y124.098 E8.31487
G1 X180.8 Y124.5 E8.32825
G1 X180.8 Y127.5 E8.42803
G1 X180.76 Y128.289 E8.4543
G1 X180.641 Y129.069 E8.48055
G1 X180.443 Y129.834 E8.50683
G1 X180.169 Y130.574 E8.53307
G1 X179.821 Y131.283 E8.55934
G1 X179.403 Y131.954 E8.58564
G1 X178.92 Y132.578 E8.61188
G1 X178.521 Y132.999 E8.63117
G1 X178.651 Y133.123 E8.63715
G1 X179.166 Y133.722 E8.66342
G1 X179.617 Y134.37 E8.68968
G1 X180.001 Y135.061 E8.71597
G1 X180.313 Y135.786 E8.74223
G1 X180.55 Y136.539 E8.76848
G1 X180.709 Y137.313 E8.79476
G1 X180.79 Y138.098 E8.82101
G1 X180.8 Y138.5 E8.83439
G1 X180.8 Y141.5 E8.93417
G1 X180.76 Y142.289 E8.96044
G1 X180.641 Y143.069 E8.98669
G1 X180.443 Y143.834 E9.01297
G1 X180.169 Y144.574 E9.03921
G1 X179.821 Y145.283 E9.06548
G1 X179.403 Y145.954 E9.09178
G1 X178.92 Y146.578 E9.11802
G1 X178.377 Y147.151 E9.14428
G1 X177.778 Y147.666 E9.17055
G1 X177.13 Y148.117 E9.19681
G1 X176.439 Y148.501 E9.2231
G1 X175.714 Y148.813 E9.24935
G1 X174.961 Y149.05 E9.27561
G1 X174.187 Y149.209 E9.30189
G1 X173.402 Y149.29 E9.32814
G1 X173 Y149.3 E9.34151
G1 X160 Y149.3 E9.7739
G1 X159.211 Y149.26 E9.80017
G1 X158.431 Y149.141 E9.82641
G1 X157.666 Y148.943 E9.8527
G1 X156.926 Y148.669 E9.87894
G1 X156.217 Y148.321 E9.90521
G1 X155.546 Y147.903 E9.93151
G1 X154.922 Y147.42 E9.95775
G1 X154.349 Y146.877 E9.98401
G1 X154.001 Y146.473 E10.00174
G1 X153.92 Y146.578 E10.00615
G1 X153.377 Y147.151 E10.03241
G1 X152.778 Y147.666 E10.05868
G1 X152.13 Y148.117 E10.08494
G1 X151.439 Y148.501 E10.11123
G1 X150.714 Y148.813 E10.13749
G1 X149.961 Y149.05 E10.16374
G1 X149.187 Y149.209 E10.19002
G1 X148.402 Y149.29 E10.21627
G1 X148 Y149.3 E10.22965
G1 X136.104 Y149.3 E10.62531
G1 X136.313 Y149.786 E10.6429
G1 X136.55 Y150.539 E10.66916
G1 X136.709 Y151.313 E10.69544
G1 X136.79 Y152.098 E10.72169
G1 X136.8 Y152.5 E10.73506
G1 X136.8 Y155.5 E10.83484
G1 X136.76 Y156.289 E10.86112
G1 X136.641 Y157.069 E10.88736
G1 X136.443 Y157.834 E10.91365
G1 X136.169 Y158.574 E10.93989
G1 X135.821 Y159.283 E10.96616
G1 X135.403 Y159.954 E10.99245
G1 X134.92 Y160.578 E11.0187
G1 X134.521 Y160.999 E11.03799
G1 X134.651 Y161.123 E11.04397
G1 X135.166 Y161.722 E11.07024
G1 X135.617 Y162.37 E11.0965
G1 X136.001 Y163.061 E11.12279
G1 X136.313 Y163.786 E11.14904
G1 X136.55 Y164.539 E11.1753
G1 X136.709 Y165.313 E11.20158
G1 X136.79 Y166.098 E11.22783
G1 X136.8 Y166.5 E11.2412
G1 X136.8 Y169.5 E11.34098
G1 X136.76 Y170.289 E11.36726
G1 X136.641 Y171.069 E11.3935
G1 X136.443 Y171.834 E11.41978
G1 X136.169 Y172.574 E11.44603
G1 X135.821 Y173.283 E11.4723
G1 X135.403 Y173.954 E11.49859
G1 X134.92 Y174.578 E11.52484
G1 X134.377 Y175.151 E11.55109
G1 X133.778 Y175.666 E11.57737
G1 X133.13 Y176.117 E11.60363
G1 X132.439 Y176.501 E11.62992
G1 X131.714 Y176.813 E11.65617
G1 X130.961 Y177.05 E11.68243
G1 X130.187 Y177.209 E11.70871
G1 X129.402 Y177.29 E11.73496
G1 X129 Y177.3 E11.74833
G1 X116 Y177.3 E12.18071
G1 X115.211 Y177.26 E12.20699
G1 X114.431 Y177.141 E12.23323
G1 X113.666 Y176.943 E12.25951
G1 X112.926 Y176.669 E12.28576
G1 X112.217 Y176.321 E12.31203
G1 X111.546 Y175.903 E12.33832
G1 X110.922 Y175.42 E12.36457
G1 X110.349 Y174.877 E12.39082
G1 X110.001 Y174.473 E12.40856
G1 X109.92 Y174.578 E12.41297
G1 X109.377 Y175.151 E12.43923
G1 X108.778 Y175.666 E12.4655
G1 X108.13 Y176.117 E12.49176
G1 X107.439 Y176.501 E12.51805
G1 X106.714 Y176.813 E12.5443
G1 X105.961 Y177.05 E12.57056
G1 X105.187 Y177.209 E12.59684
G1 X104.402 Y177.29 E12.62309
G1 X104 Y177.3 E12.63646
G1 X91 Y177.3 E13.06884
G1 X90.211 Y177.26 E13.09512
G1 X89.431 Y177.141 E13.12136
G1 X88.666 Y176.943 E13.14765
G1 X87.926 Y176.669 E13.17389
G1 X87.217 Y176.321 E13.20016
G1 X86.546 Y175.903 E13.22645
G1 X85.922 Y175.42 E13.2527
G1 X85.349 Y174.877 E13.27896
G1 X84.834 Y174.278 E13.30523
G1 X84.383 Y173.63 E13.33149
G1 X83.999 Y172.939 E13.35778
G1 X83.687 Y172.214 E13.38403
G1 X83.45 Y171.461 E13.41029
G1 X83.291 Y170.687 E13.43657
G1 X83.21 Y169.902 E13.46282
G1 X83.2 Y169.5 E13.47619
G1 X83.2 Y166.5 E13.57597
G1 X83.24 Y165.711 E13.60225
G1 X83.359 Y164.931 E13.62849
G1 X83.557 Y164.166 E13.65477
G1 X83.831 Y163.426 E13.68102
G1 X83.893 Y163.3 E13.68569
G1 X72 Y163.3 E14.08125
G1 X71.211 Y163.26 E14.10753
G1 X70.431 Y163.141 E14.13377
G1 X69.666 Y162.943 E14.16005
G1 X68.926 Y162.669 E14.1863
G1 X68.217 Y162.321 E14.21257
G1 X67.546 Y161.903 E14.23886
G1 X66.922 Y161.42 E14.26511
G1 X66.349 Y160.877 E14.29136
G1 X66.001 Y160.473 E14.3091
G1 X65.92 Y160.578 E14.31351
G1 X65.377 Y161.151 E14.33977
G1 X64.778 Y161.666 E14.36604
G1 X64.13 Y162.117 E14.3923
G1 X63.439 Y162.501 E14.41859
G1 X62.714 Y162.813 E14.44484
G1 X61.961 Y163.05 E14.4711
G1 X61.187 Y163.209 E14.49738
G1 X60.402 Y163.29 E14.52363
G1 X60 Y163.3 E14.537
G1 X47 Y163.3 E14.96938
G1 X46.211 Y163.26 E14.99566
G1 X45.431 Y163.141 E15.0219
G1 X44.666 Y162.943 E15.04819
G1 X43.926 Y162.669 E15.07443
G1 X43.217 Y162.321 E15.1007
G1 X42.546 Y161.903 E15.12699
G1 X41.922 Y161.42 E15.15324
G1 X41.349 Y160.877 E15.1795
G1 X40.834 Y160.278 E15.20577
G1 X40.383 Y159.63 E15.23203
G1 X39.999 Y158.939 E15.25832
G1 X39.687 Y158.214 E15.28457
G1 X39.45 Y157.461 E15.31083
G1 X39.291 Y156.687 E15.33711
G1 X39.21 Y155.902 E15.36336
G1 X39.2 Y155.5 E15.37673
G1 X39.2 Y152.5 E15.47651
G1 X39.24 Y151.711 E15.50279
G1 X39.359 Y150.931 E15.52903
G1 X39.557 Y150.166 E15.55531
G1 X39.831 Y149.426 E15.58156
G1 X40.179 Y148.717 E15.60783
G1 X40.597 Y148.046 E15.63412
G1 X41.08 Y147.422 E15.66037
G1 X41.479 Y147.001 E15.67966
G1 X41.349 Y146.877 E15.68564
G1 X40.834 Y146.278 E15.71191
G1 X40.383 Y145.63 E15.73817
G1 X39.999 Y144.939 E15.76446
G1 X39.687 Y144.214 E15.79071
G1 X39.45 Y143.461 E15.81697
G1 X39.291 Y142.687 E15.84325
G1 X39.21 Y141.902 E15.8695
G1 X39.2 Y141.5 E15.88287
G1 X39.2 Y138.5 E15.98265
G1 X39.24 Y137.711 E16.00893
G1 X39.359 Y136.931 E16.03517
G1 X39.557 Y136.166 E16.06145
G1 X39.831 Y135.426 E16.0877
G1 X40.179 Y134.717 E16.11397
G1 X40.597 Y134.046 E16.14026
G1 X41.08 Y133.422 E16.16651
G1 X41.479 Y133.001 E16.1858
G1 X41.349 Y132.877 E16.19178
G1 X40.834 Y132.278 E16.21805
G1 X40.383 Y131.63 E16.24431
G1 X39.999 Y130.939 E16.2706
G1 X39.687 Y130.214 E16.29685
G1 X39.45 Y129.461 E16.32311
G1 X39.291 Y128.687 E16.34939
G1 X39.21 Y127.902 E16.37564
G1 X39.2 Y127.5 E16.38901
G1 X39.2 Y124.5 E16.48879
G1 X39.24 Y123.711 E16.51507
G1 X39.359 Y122.931 E16.54131
G1 X39.557 Y122.166 E16.56759
G1 X39.831 Y121.426 E16.59384
G1 X40.179 Y120.717 E16.62011
G1 X40.597 Y120.046 E16.6464
G1 X41.08 Y119.422 E16.67265
G1 X41.479 Y119.001 E16.69194
G1 X41.349 Y118.877 E16.69792
G1 X40.834 Y118.278 E16.72419
G1 X40.383 Y117.63 E16.75045
G1 X39.999 Y116.939 E16.77674
G1 X39.687 Y116.214 E16.80299
G1 X39.45 Y115.461 E16.82925
G1 X39.291 Y114.687 E16.85553
G1 X39.21 Y113.902 E16.88178
G1 X39.2 Y113.5 E16.89515
G1 X39.2 Y110.5 E16.99493
G1 X39.24 Y109.711 E17.02121
G1 X39.359 Y108.931 E17.04745
G1 X39.557 Y108.166 E17.07373
G1 X39.831 Y107.426 E17.09998
G1 X40.179 Y106.717 E17.12625
G1 X40.597 Y106.046 E17.15254
G1 X41.08 Y105.422 E17.17879
G1 X41.479 Y105.001 E17.19808
G1 X41.349 Y104.877 E17.20405
G1 X40.834 Y104.278 E17.23033
G1 X40.383 Y103.63 E17.25659
G1 X39.999 Y102.939 E17.28288
G1 X39.687 Y102.214 E17.30913
G1 X39.45 Y101.461 E17.33539
G1 X39.291 Y100.687 E17.36167
G1 X39.21 Y99.902 E17.38792
G1 X39.2 Y99.5 E17.40129
G1 X39.2 Y96.5 E17.50107
G1 X39.24 Y95.711 E17.52735
G1 X39.359 Y94.931 E17.55359
G1 X39.557 Y94.166 E17.57987
G1 X39.831 Y93.426 E17.60612
G1 X40.179 Y92.717 E17.63239
G1 X40.597 Y92.046 E17.65868
G1 X41.08 Y91.422 E17.68493
G1 X41.479 Y91.001 E17.70422
G1 X41.349 Y90.877 E17.71019
G1 X40.834 Y90.278 E17.73647
G1 X40.383 Y89.63 E17.76273
G1 X39.999 Y88.939 E17.78902
G1 X39.687 Y88.214 E17.81527
G1 X39.45 Y87.461 E17.84153
G1 X39.291 Y86.687 E17.86781
G1 X39.21 Y85.902 E17.89406
G1 X39.2 Y85.5 E17.90743
G1 X39.2 Y82.5 E18.00721
G1 X39.24 Y81.711 E18.03349
G1 X39.359 Y80.931 E18.05973
G1 X39.557 Y80.166 E18.08601
G1 X39.831 Y79.426 E18.11226
G1 X40.179 Y78.717 E18.13853
G1 X40.597 Y78.046 E18.16482
G1 X41.08 Y77.422 E18.19107
G1 X41.623 Y76.849 E18.21732
G1 X42.222 Y76.334 E18.2436
G1 X42.87 Y75.883 E18.26986
G0 F6000 X43.253 Y76.119
G1 F1200 X43.936 Y75.764 E18.29546
G1 X44.651 Y75.483 E18.32101
G1 X45.393 Y75.277 E18.34662
G1 X46.151 Y75.149 E18.37219
G1 X47 Y75.1 E18.40047
G1 X50.438 Y75.1 E18.51482
G1 X50.578 Y74.824 E18.52512
G1 X50.994 Y74.177 E18.5507
G1 X51.475 Y73.577 E18.57628
G1 X52.016 Y73.03 E18.60187
G1 X52.611 Y72.542 E18.62746
G1 X53.253 Y72.119 E18.65303
G1 X53.936 Y71.764 E18.67863
G1 X54.651 Y71.483 E18.70418
G1 X55.393 Y71.277 E18.7298
G1 X56.151 Y71.149 E18.75537
