;FLAVOR:Marlin
;TIME:10054
;Filament used: 6.68591m
;Layer height: 0.2
;MINX:9.7
;MINY:67.7
;MINZ:0.2
;MAXX:210.3
;MAXY:152.3
;MAXZ:15
;Generated with Cura_SteamEngine 4.4.1
M140 S50
M105
M190 S50
M104 S200
M105
M109 S200
M82 ;absolute extrusion mode
M201 X500.00 Y500.00 Z100.00 E5000.00 ;Setup machine max acceleration
M203 X500.00 Y500.00 Z10.00 E50.00 ;Setup machine max feedrate
M204 P500.00 R1000.00 T500.00 ;Setup Print/Retract/Travel acceleration
M205 X8.00 Y8.00 Z0.40 E5.00 ;Setup Jerk
M220 S100 ;Reset Feedrate
M221 S100 ;Reset Flowrate

G28 ;Home

G92 E0 ;Reset Extruder
G1 Z2.0 F3000 ;Move Z Axis up
G1 X10.1 Y20 Z0.28 F5000.0 ;Move to start position
G1 X10.1 Y200.0 Z0.28 F1500.0 E15 ;Draw the first line
G1 X10.4 Y200.0 Z0.28 F5000.0 ;Move to side a little
G1 X10.4 Y20 Z0.28 F1500.0 E30 ;Draw the second line
G92 E0 ;Reset Extruder
G1 Z2.0 F3000 ;Move Z Axis up

G92 E0
G92 E0
G1 F2700 E-5
;LAYER_COUNT:75
;LAYER:0
M107
G0 F6000 X15.539 Y67.95 Z0.2
;TYPE:SKIRT
G1 F2700 E0
G1 F1200 X16.313 Y67.791 E0.02628
G1 X17.098 Y67.71 E0.05253
G1 X17.5 Y67.7 E0.0659
G1 X32.5 Y67.7 E0.56481
G1 X33.289 Y67.74 E0.59108
G1 X34.069 Y67.859 E0.61732
G1 X34.834 Y68.057 E0.64361
G1 X35.574 Y68.331 E0.66985
G1 X36.283 Y68.679 E0.69612
G1 X36.954 Y69.097 E0.72242
G1 X37.578 Y69.58 E0.74866
G1 X38.151 Y70.123 E0.77492
G1 X38.666 Y70.722 E0.80119
G1 X39.117 Y71.37 E0.82745
G1 X39.501 Y72.061 E0.85374
G1 X39.813 Y72.786 E0.87999
G1 X40.05 Y73.539 E0.90625
G1 X40.209 Y74.313 E0.93253
G1 X40.29 Y75.098 E0.95878
G1 X40.3 Y75.5 E0.97215
G1 X40.3 Y131.7 E2.84137
G1 X179.7 Y131.7 E7.47784
G1 X179.7 Y75.5 E9.34706
G1 X179.74 Y74.711 E9.37333
G1 X179.859 Y73.931 E9.39957
G1 X180.057 Y73.166 E9.42586
G1 X180.331 Y72.426 E9.4521
G1 X180.679 Y71.717 E9.47837
G1 X181.097 Y71.046 E9.50467
G1 X181.58 Y70.422 E9.53091
G1 X182.123 Y69.849 E9.55717
G1 X182.722 Y69.334 E9.58344
G1 X183.37 Y68.883 E9.6097
G1 X184.061 Y68.499 E9.63599
G1 X184.786 Y68.187 E9.66224
G1 X185.539 Y67.95 E9.6885
G1 X186.313 Y67.791 E9.71478
G1 X187.098 Y67.71 E9.74103
G1 X187.5 Y67.7 E9.7544
G1 X202.5 Y67.7 E10.25331
G1 X203.289 Y67.74 E10.27958
G1 X204.069 Y67.859 E10.30582
G1 X204.834 Y68.057 E10.33211
G1 X205.574 Y68.331 E10.35835
G1 X206.283 Y68.679 E10.38462
G1 X206.954 Y69.097 E10.41092
G1 X207.578 Y69.58 E10.43716
G1 X208.151 Y70.123 E10.46342
G1 X208.666 Y70.722 E10.48969
G1 X209.117 Y71.37 E10.51595
G1 X209.501 Y72.061 E10.54224
G1 X209.813 Y72.786 E10.56849
G1 X210.05 Y73.539 E10.59475
G1 X210.209 Y74.313 E10.62103
G1 X210.29 Y75.098 E10.64728
G1 X210.3 Y75.5 E10.66065
G1 X210.3 Y80.5 E10.82695
G1 X210.26 Y81.289 E10.85323
G1 X210.141 Y82.069 E10.87947
G1 X209.943 Y82.834 E10.90576
G1 X209.669 Y83.574 E10.932
G1 X209.321 Y84.283 E10.95827
G1 X208.903 Y84.954 E10.98456
G1 X208.42 Y85.578 E11.01081
G1 X207.877 Y86.151 E11.03707
G1 X207.278 Y86.666 E11.06334
G1 X206.63 Y87.117 E11.0896
G1 X205.939 Y87.501 E11.11589
G1 X205.214 Y87.813 E11.14214
G1 X204.461 Y88.05 E11.1684
G1 X203.687 Y88.209 E11.19468
G1 X202.902 Y88.29 E11.22093
G1 X202.5 Y88.3 E11.2343
G1 X200.3 Y88.3 E11.30747
G1 X200.3 Y144.5 E13.17669
G1 X200.26 Y145.289 E13.20297
G1 X200.141 Y146.069 E13.22921
G1 X199.943 Y146.834 E13.2555
G1 X199.669 Y147.574 E13.28174
G1 X199.321 Y148.283 E13.30801
G1 X198.903 Y148.954 E13.3343
G1 X198.42 Y149.578 E13.36055
G1 X197.877 Y150.151 E13.38681
G1 X197.278 Y150.666 E13.41308
G1 X196.63 Y151.117 E13.43934
G1 X195.939 Y151.501 E13.46563
G1 X195.214 Y151.813 E13.49188
G1 X194.461 Y152.05 E13.51814
G1 X193.687 Y152.209 E13.54442
G1 X192.902 Y152.29 E13.57067
G1 X192.5 Y152.3 E13.58404
G1 X27.5 Y152.3 E19.07196
G1 X26.711 Y152.26 E19.09824
G1 X25.931 Y152.141 E19.12448
G1 X25.166 Y151.943 E19.15077
G1 X24.426 Y151.669 E19.17701
G1 X23.717 Y151.321 E19.20328
G1 X23.046 Y150.903 E19.22957
G1 X22.422 Y150.42 E19.25582
G1 X21.849 Y149.877 E19.28208
G1 X21.334 Y149.278 E19.30835
G1 X20.883 Y148.63 E19.33461
G1 X20.499 Y147.939 E19.3609
G1 X20.187 Y147.214 E19.38715
G1 X19.95 Y146.461 E19.41341
G1 X19.791 Y145.687 E19.43969
G1 X19.71 Y144.902 E19.46594
G1 X19.7 Y144.5 E19.47931
G1 X19.7 Y88.3 E21.34853
G1 X17.5 Y88.3 E21.4217
G1 X16.711 Y88.26 E21.44798
G1 X15.931 Y88.141 E21.47422
G1 X15.166 Y87.943 E21.50051
G1 X14.426 Y87.669 E21.52675
G1 X13.717 Y87.321 E21.55302
G1 X13.046 Y86.903 E21.57931
G1 X12.422 Y86.42 E21.60556
G1 X11.849 Y85.877 E21.63182
G1 X11.334 Y85.278 E21.65809
G1 X10.883 Y84.63 E21.68435
G1 X10.499 Y83.939 E21.71064
G1 X10.187 Y83.214 E21.73689
G1 X9.95 Y82.461 E21.76315
G1 X9.791 Y81.687 E21.78943
G1 X9.71 Y80.902 E21.81568
G1 X9.7 Y80.5 E21.82905
G1 X9.7 Y75.5 E21.99535
G1 X9.74 Y74.711 E22.02163
G1 X9.859 Y73.931 E22.04787
G1 X10.057 Y73.166 E22.07415
G1 X10.331 Y72.426 E22.1004
G1 X10.679 Y71.717 E22.12667
G1 X11.097 Y71.046 E22.15296
G1 X11.58 Y70.422 E22.17921
G1 X12.123 Y69.849 E22.20546
G1 X12.722 Y69.334 E22.23174
G1 X13.37 Y68.883 E22.258
G1 X14.061 Y68.499 E22.28429
G1 X14.786 Y68.187 E22.31054
G1 X15.539 Y67.95 E22.3368
G0 F6000 X15.893 Y68.277
G1 F1200 X16.651 Y68.149 E22.36237
G1 X17.5 Y68.1 E22.39065
G1 X32.5 Y68.1 E22.88955
G1 X33.268 Y68.14 E22.91513
G1 X34.028 Y68.259 E22.94072
G1 X34.771 Y68.457 E22.96629
G1 X35.49 Y68.731 E22.99188
G1 X36.176 Y69.078 E23.01745
G1 X36.823 Y69.494 E23.04304
G1 X37.423 Y69.975 E23.06861
G1 X37.97 Y70.516 E23.0942
G1 X38.458 Y71.111 E23.1198
G1 X38.881 Y71.753 E23.14537
G1 X39.236 Y72.436 E23.17097
G1 X39.517 Y73.151 E23.19652
G1 X39.723 Y73.893 E23.22213
G1 X39.851 Y74.651 E23.2477
G1 X39.9 Y75.5 E23.27599
G1 X39.9 Y132.1 E25.15851
G1 X180.1 Y132.1 E29.82158
G1 X180.1 Y75.5 E31.7041
G1 X180.14 Y74.732 E31.72968
G1 X180.259 Y73.972 E31.75527
G1 X180.457 Y73.229 E31.78084
G1 X180.731 Y72.51 E31.80643
G1 X181.078 Y71.824 E31.832
G1 X181.494 Y71.177 E31.85759
G1 X181.975 Y70.577 E31.88316
G1 X182.516 Y70.03 E31.90875
G1 X183.111 Y69.542 E31.93435
G1 X183.753 Y69.119 E31.95992
G1 X184.436 Y68.764 E31.98552
G1 X185.151 Y68.483 E32.01107
G1 X185.893 Y68.277 E32.03669
G1 X186.651 Y68.149 E32.06225
G1 X187.5 Y68.1 E32.09054
G1 X202.5 Y68.1 E32.58944
G1 X203.268 Y68.14 E32.61502
G1 X204.028 Y68.259 E32.6406
G1 X204.771 Y68.457 E32.66618
G1 X205.49 Y68.731 E32.69177
G1 X206.176 Y69.078 E32.71734
G1 X206.823 Y69.494 E32.74292
G1 X207.423 Y69.975 E32.7685
G1 X207.97 Y70.516 E32.79409
G1 X208.458 Y71.111 E32.81968
G1 X208.881 Y71.753 E32.84525
G1 X209.236 Y72.436 E32.87086
G1 X209.517 Y73.151 E32.89641
G1 X209.723 Y73.893 E32.92202
G1 X209.851 Y74.651 E32.94759
G1 X209.9 Y75.5 E32.97587
G1 X209.9 Y80.5 E33.14217
G1 X209.86 Y81.268 E33.16775
G1 X209.741 Y82.028 E33.19334
G1 X209.543 Y82.771 E33.21891
G1 X209.269 Y83.49 E33.24451
G1 X208.922 Y84.176 E33.27007
G1 X208.506 Y84.823 E33.29566
G1 X208.025 Y85.423 E33.32124
G1 X207.484 Y85.97 E33.34682
G1 X206.889 Y86.458 E33.37242
G1 X206.247 Y86.881 E33.39799
G1 X205.564 Y87.236 E33.42359
G1 X204.849 Y87.517 E33.44914
G1 X204.107 Y87.723 E33.47476
G1 X203.349 Y87.851 E33.50032
G1 X202.5 Y87.9 E33.52861
G1 X199.9 Y87.9 E33.61508
G1 X199.9 Y144.5 E35.49761
G1 X199.86 Y145.268 E35.52319
G1 X199.741 Y146.028 E35.54877
G1 X199.543 Y146.771 E35.57435
G1 X199.269 Y147.49 E35.59994
G1 X198.922 Y148.176 E35.62551
G1 X198.506 Y148.823 E35.65109
G1 X198.025 Y149.423 E35.67667
G1 X197.484 Y149.97 E35.70226
G1 X196.889 Y150.458 E35.72785
G1 X196.247 Y150.881 E35.75342
G1 X195.564 Y151.236 E35.77903
G1 X194.849 Y151.517 E35.80458
G1 X194.107 Y151.723 E35.83019
G1 X193.349 Y151.851 E35.85576
G1 X192.5 Y151.9 E35.88404
G1 X27.5 Y151.9 E41.37196
G1 X26.732 Y151.86 E41.39754
G1 X25.972 Y151.741 E41.42313
G1 X25.229 Y151.543 E41.4487
G1 X24.51 Y151.269 E41.47429
G1 X23.824 Y150.922 E41.49986
G1 X23.177 Y150.506 E41.52545
G1 X22.577 Y150.025 E41.55102
G1 X22.03 Y149.484 E41.57661
G1 X21.542 Y148.889 E41.60221
G1 X21.119 Y148.247 E41.62778
G1 X20.764 Y147.564 E41.65338
G1 X20.483 Y146.849 E41.67893
G1 X20.277 Y146.107 E41.70455
G1 X20.149 Y145.349 E41.73011
G1 X20.1 Y144.5 E41.7584
G1 X20.1 Y87.9 E43.64092
G1 X17.5 Y87.9 E43.7274
G1 X16.732 Y87.86 E43.75298
G1 X15.972 Y87.741 E43.77856
G1 X15.229 Y87.543 E43.80414
G1 X14.51 Y87.269 E43.82973
G1 X13.824 Y86.922 E43.8553
G1 X13.177 Y86.506 E43.88088
G1 X12.577 Y86.025 E43.90646
G1 X12.03 Y85.484 E43.93205
G1 X11.542 Y84.889 E43.95764
G1 X11.119 Y84.247 E43.98321
G1 X10.764 Y83.564 E44.00881
G1 X10.483 Y82.849 E44.03437
G1 X10.277 Y82.107 E44.05998
G1 X10.149 Y81.349 E44.08555
G1 X10.1 Y80.5 E44.11383
G1 X10.1 Y75.5 E44.28013
G1 X10.14 Y74.732 E44.30571
G1 X10.259 Y73.972 E44.3313
G1 X10.457 Y73.229 E44.35687
G1 X10.731 Y72.51 E44.38246
G1 X11.078 Y71.824 E44.40803
G1 X11.494 Y71.177 E44.43362
G1 X11.975 Y70.577 E44.45919
G1 X12.516 Y70.03 E44.48478
G1 X13.111 Y69.542 E44.51038
G1 X13.753 Y69.119 E44.53595
G1 X14.436 Y68.764 E44.56155
G1 X15.151 Y68.483 E44.5871
G1 X15.893 Y68.277 E44.61271
G0 F6000 X15.513 Y68.788
G1 F1200 X16.241 Y68.614 E44.63761
G1 X16.983 Y68.519 E44.66249
G1 X17.5 Y68.5 E44.6797
G1 X32.5 Y68.5 E45.1786
G1 X33.247 Y68.54 E45.20348
G1 X33.985 Y68.659 E45.22834
G1 X34.707 Y68.857 E45.25324
G1 X35.403 Y69.13 E45.27811
G1 X36.066 Y69.477 E45.303
G1 X36.689 Y69.892 E45.3279
G1 X37.263 Y70.371 E45.35276
G1 X37.784 Y70.908 E45.37765
G1 X38.243 Y71.498 E45.40251
G1 X38.638 Y72.134 E45.42741
G1 X38.962 Y72.808 E45.45228
G1 X39.212 Y73.513 E45.47716
G1 X39.386 Y74.241 E45.50206
G1 X39.481 Y74.983 E45.52694
G1 X39.5 Y75.5 E45.54414
G1 X39.5 Y132.5 E47.43997
G1 X180.5 Y132.5 E52.12965
G1 X180.5 Y75.5 E54.02548
G1 X180.54 Y74.753 E54.05036
G1 X180.659 Y74.015 E54.07522
G1 X180.857 Y73.293 E54.10012
G1 X181.13 Y72.597 E54.12499
G1 X181.477 Y71.934 E54.14988
G1 X181.892 Y71.311 E54.17478
G1 X182.371 Y70.737 E54.19964
G1 X182.908 Y70.216 E54.22453
G1 X183.498 Y69.757 E54.24939
G1 X184.134 Y69.362 E54.27429
G1 X184.808 Y69.038 E54.29916
G1 X185.513 Y68.788 E54.32404
G1 X186.241 Y68.614 E54.34894
G1 X186.983 Y68.519 E54.37382
G1 X187.5 Y68.5 E54.39103
G1 X202.5 Y68.5 E54.88993
G1 X203.247 Y68.54 E54.91481
G1 X203.985 Y68.659 E54.93967
G1 X204.707 Y68.857 E54.96457
G1 X205.403 Y69.13 E54.98944
G1 X206.066 Y69.477 E55.01433
G1 X206.689 Y69.892 E55.03923
G1 X207.263 Y70.371 E55.06409
G1 X207.784 Y70.908 E55.08898
G1 X208.243 Y71.498 E55.11384
G1 X208.638 Y72.134 E55.13874
G1 X208.962 Y72.808 E55.16361
G1 X209.212 Y73.513 E55.18849
G1 X209.386 Y74.241 E55.21339
G1 X209.481 Y74.983 E55.23827
G1 X209.5 Y75.5 E55.25547
G1 X209.5 Y80.5 E55.42178
G1 X209.46 Y81.247 E55.44666
G1 X209.341 Y81.985 E55.47152
G1 X209.143 Y82.707 E55.49642
G1 X208.87 Y83.403 E55.52129
G1 X208.523 Y84.066 E55.54618
G1 X208.108 Y84.689 E55.57107
G1 X207.629 Y85.263 E55.59594
G1 X207.092 Y85.784 E55.62082
G1 X206.502 Y86.243 E55.64569
G1 X205.866 Y86.638 E55.67059
G1 X205.192 Y86.962 E55.69546
G1 X204.487 Y87.212 E55.72034
G1 X203.759 Y87.386 E55.74523
G1 X203.017 Y87.481 E55.77012
G1 X202.5 Y87.5 E55.78732
G1 X199.5 Y87.5 E55.8871
G1 X199.5 Y144.5 E57.78293
G1 X199.46 Y145.247 E57.80781
G1 X199.341 Y145.985 E57.83267
G1 X199.143 Y146.707 E57.85757
G1 X198.87 Y147.403 E57.88244
G1 X198.523 Y148.066 E57.90733
G1 X198.108 Y148.689 E57.93223
G1 X197.629 Y149.263 E57.95709
G1 X197.092 Y149.784 E57.98198
G1 X196.502 Y150.243 E58.00684
G1 X195.866 Y150.638 E58.03174
G1 X195.192 Y150.962 E58.05661
G1 X194.487 Y151.212 E58.08149
G1 X193.759 Y151.386 E58.10639
G1 X193.017 Y151.481 E58.13127
G1 X192.5 Y151.5 E58.14848
G1 X27.5 Y151.5 E63.6364
G1 X26.753 Y151.46 E63.66128
G1 X26.015 Y151.341 E63.68614
G1 X25.293 Y151.143 E63.71104
G1 X24.597 Y150.87 E63.73591
G1 X23.934 Y150.523 E63.7608
G1 X23.311 Y150.108 E63.7857
G1 X22.737 Y149.629 E63.81056
G1 X22.216 Y149.092 E63.83545
G1 X21.757 Y148.502 E63.86031
G1 X21.362 Y147.866 E63.88521
G1 X21.038 Y147.192 E63.91008
G1 X20.788 Y146.487 E63.93496
G1 X20.614 Y145.759 E63.95986
G1 X20.519 Y145.017 E63.98474
G1 X20.5 Y144.5 E64.00195
G1 X20.5 Y87.5 E65.89777
G1 X17.5 Y87.5 E65.99755
G1 X16.753 Y87.46 E66.02243
G1 X16.015 Y87.341 E66.0473
G1 X15.293 Y87.143 E66.0722
G1 X14.597 Y86.87 E66.09706
G1 X13.934 Y86.523 E66.12195
G1 X13.311 Y86.108 E66.14685
G1 X12.737 Y85.629 E66.17172
G1 X12.216 Y85.092 E66.1966
G1 X11.757 Y84.502 E66.22146
G1 X11.362 Y83.866 E66.24637
G1 X11.038 Y83.192 E66.27124
G1 X10.788 Y82.487 E66.29612
G1 X10.614 Y81.759 E66.32101
G1 X10.519 Y81.017 E66.34589
G1 X10.5 Y80.5 E66.3631
G1 X10.5 Y75.5 E66.5294
G1 X10.54 Y74.753 E66.55428
G1 X10.659 Y74.015 E66.57915
G1 X10.857 Y73.293 E66.60405
G1 X11.13 Y72.597 E66.62891
G1 X11.477 Y71.934 E66.6538
G1 X11.892 Y71.311 E66.6787
G1 X12.371 Y70.737 E66.70356
G1 X12.908 Y70.216 E66.72845
G1 X13.498 Y69.757 E66.75331
G1 X14.134 Y69.362 E66.77821
G1 X14.808 Y69.038 E66.80309
G1 X15.513 Y68.788 E66.82797
G0 F6000 X15.871 Y69.104
G1 F1200 X16.583 Y68.964 E66.8521
G1 X17.5 Y68.9 E66.88267
G1 X32.5 Y68.9 E67.38158
G1 X33.225 Y68.94 E67.40573
G1 X33.942 Y69.059 E67.4299
G1 X34.641 Y69.257 E67.45406
G1 X35.314 Y69.53 E67.47822
G1 X35.953 Y69.875 E67.50237
G1 X36.55 Y70.289 E67.52654
G1 X37.098 Y70.765 E67.55068
G1 X37.591 Y71.299 E67.57485
G1 X38.021 Y71.884 E67.599
G1 X38.385 Y72.513 E67.62317
G1 X38.678 Y73.178 E67.64734
G1 X38.896 Y73.871 E67.6715
G1 X39.036 Y74.583 E67.69564
G1 X39.1 Y75.5 E67.72621
G1 X39.1 Y132.9 E69.63534
G1 X180.9 Y132.9 E74.35163
G1 X180.9 Y75.5 E76.26076
G1 X180.94 Y74.775 E76.28491
G1 X181.059 Y74.058 E76.30909
G1 X181.257 Y73.359 E76.33325
G1 X181.53 Y72.686 E76.3574
G1 X181.875 Y72.047 E76.38156
G1 X182.289 Y71.45 E76.40572
G1 X182.765 Y70.902 E76.42986
G1 X183.299 Y70.409 E76.45404
G1 X183.884 Y69.979 E76.47818
G1 X184.513 Y69.615 E76.50236
G1 X185.178 Y69.322 E76.52652
G1 X185.871 Y69.104 E76.55069
G1 X186.583 Y68.964 E76.57482
G1 X187.5 Y68.9 E76.6054
G1 X202.5 Y68.9 E77.1043
G1 X203.225 Y68.94 E77.12845
G1 X203.942 Y69.059 E77.15262
G1 X204.641 Y69.257 E77.17679
G1 X205.314 Y69.53 E77.20094
G1 X205.953 Y69.875 E77.22509
G1 X206.55 Y70.289 E77.24926
G1 X207.098 Y70.765 E77.2734
G1 X207.591 Y71.299 E77.29757
G1 X208.021 Y71.884 E77.32172
G1 X208.385 Y72.513 E77.34589
G1 X208.678 Y73.178 E77.37006
G1 X208.896 Y73.871 E77.39422
G1 X209.036 Y74.583 E77.41836
G1 X209.1 Y75.5 E77.44893
G1 X209.1 Y80.5 E77.61523
G1 X209.06 Y81.225 E77.63938
G1 X208.941 Y81.942 E77.66356
G1 X208.743 Y82.641 E77.68772
G1 X208.47 Y83.314 E77.71188
G1 X208.125 Y83.953 E77.73603
G1 X207.711 Y84.55 E77.76019
G1 X207.235 Y85.098 E77.78434
G1 X206.701 Y85.591 E77.80851
G1 X206.116 Y86.021 E77.83266
G1 X205.487 Y86.385 E77.85683
G1 X204.822 Y86.678 E77.881
G1 X204.129 Y86.896 E77.90516
G1 X203.417 Y87.036 E77.92929
G1 X202.5 Y87.1 E77.95987
G1 X199.1 Y87.1 E78.07295
G1 X199.1 Y144.5 E79.98208
G1 X199.06 Y145.225 E80.00624
G1 X198.941 Y145.942 E80.03041
G1 X198.743 Y146.641 E80.05457
G1 X198.47 Y147.314 E80.07873
G1 X198.125 Y147.953 E80.10288
G1 X197.711 Y148.55 E80.12704
G1 X197.235 Y149.098 E80.15119
G1 X196.701 Y149.591 E80.17536
G1 X196.116 Y150.021 E80.19951
G1 X195.487 Y150.385 E80.22368
G1 X194.822 Y150.678 E80.24785
G1 X194.129 Y150.896 E80.27201
G1 X193.417 Y151.036 E80.29615
G1 X192.5 Y151.1 E80.32672
G1 X27.5 Y151.1 E85.81464
G1 X26.775 Y151.06 E85.83879
G1 X26.058 Y150.941 E85.86297
G1 X25.359 Y150.743 E85.88713
G1 X24.686 Y150.47 E85.91129
G1 X24.047 Y150.125 E85.93544
G1 X23.45 Y149.711 E85.9596
G1 X22.902 Y149.235 E85.98374
G1 X22.409 Y148.701 E86.00792
G1 X21.979 Y148.116 E86.03206
G1 X21.615 Y147.487 E86.05624
G1 X21.322 Y146.822 E86.08041
G1 X21.104 Y146.129 E86.10457
G1 X20.964 Y145.417 E86.1287
G1 X20.9 Y144.5 E86.15928
G1 X20.9 Y87.1 E88.06841
G1 X17.5 Y87.1 E88.18149
G1 X16.775 Y87.06 E88.20564
G1 X16.058 Y86.941 E88.22982
G1 X15.359 Y86.743 E88.25398
G1 X14.686 Y86.47 E88.27814
G1 X14.047 Y86.125 E88.30229
G1 X13.45 Y85.711 E88.32645
G1 X12.902 Y85.235 E88.3506
G1 X12.409 Y84.701 E88.37477
G1 X11.979 Y84.116 E88.39892
G1 X11.615 Y83.487 E88.42309
G1 X11.322 Y82.822 E88.44726
G1 X11.104 Y82.129 E88.47142
G1 X10.964 Y81.417 E88.49555
G1 X10.9 Y80.5 E88.52613
G1 X10.9 Y75.5 E88.69243
G1 X10.94 Y74.775 E88.71658
G1 X11.059 Y74.058 E88.74075
